X: 46
T:Sligo Maid
M:C|
L:1/8
R:reel
K:ADor
A2 BA Bdef |gedB AGEF|G2 BG dGBG|DEGA BAdB|A2 BA Bdef|gedB AGEG|B3  G A2
 GE|DEGA BA A2  :|
|:eaag a2 ga |bgaf gfed|eggf g2 ge|dega bgag|eaag a2 ga|bgaf gfed|eg g2
edBc|dBgB BA A2 :|
